public/images/icons/eye-off.svg

<svg xmlns="http://www.w3.org/2000/svg" fill="currentColor" viewBox="0 0 24 24"><path d="M11.83 9 15 12.16V12a3 3 0 0 0-3-3h-.17m-4.3.8 1.55 1.55c-.05.21-.08.42-.08.65a3 3 0 0 0 3 3c.22 0 .44-.03.65-.08l1.55 1.55c-.67.33-1.41.53-2.2.53a5 5 0 0 1-5-5c0-.79.2-1.53.53-2.2M2 4.27l2.28 2.28.45.45C3.08 8.3 1.78 10 1 12c1.73 4.39 6 7.5 11 7.5 1.55 0 3.03-.3 4.38-.84l.43.42L19.73 22 21 20.73 3.27 3M12 7a5 5 0 0 1 5 5c0 .64-.13 1.26-.36 1.82l2.93 2.93c1.5-1.25 2.7-2.89 3.43-4.75-1.73-4.39-6-7.5-11-7.5-1.4 0-2.74.25-4 .7l2.17 2.15C10.74 7.13 11.35 7 12 7Z"/></svg>

<svg xmlns="http://www.w3.org/2000/svg" viewBox="0 0 24 24" fill="currentColor"><path d="M11.83,9L15,12.16C15,12.11 15,12.05 15,12A3,3 0 0,0 12,9C11.94,9 11.89,9 11.83,9M7.53,9.8L9.08,11.35C9.03,11.56 9,11.77 9,12A3,3 0 0,0 12,15C12.22,15 12.44,14.97 12.65,14.92L14.2,16.47C13.53,16.8 12.79,17 12,17A5,5 0 0,1 7,12C7,11.21 7.2,10.47 7.53,9.8M2,4.27L4.28,6.55L4.73,7C3.08,8.3 1.78,10 1,12C2.73,16.39 7,19.5 12,19.5C13.55,19.5 15.03,19.2 16.38,18.66L16.81,19.08L19.73,22L21,20.73L3.27,3M12,7A5,5 0 0,1 17,12C17,12.64 16.87,13.26 16.64,13.82L19.57,16.75C21.07,15.5 22.27,13.86 23,12C21.27,7.61 17,4.5 12,4.5C10.6,4.5 9.26,4.75 8,5.2L10.17,7.35C10.74,7.13 11.35,7 12,7Z" /></svg>
